X:5
T:American Hornpipe (Craig 5)
M:C
L:1/8
B:Empire Violin Collection of Hornpipes
H:Published by Thomas Craig
H:Music Publisher, &c.
H:George Street, Aberdeen, N.B.
Z:Peter Dunk December 2011
R:hornpipe
Q:1/4=140
K:A
A2 (3ABc B2 (3Bcd | e>cd>B c>A (3GFE | A2 (3ABc B2 (3Bcd |1e>c (3dcB A2E2 :|2(3efe (3dcB A2A,2 |!
|: a2(3fga g2e2 | f2 g>ag>g e2 | a2(3fga g2e2 | f>ef>g a2 (3efg |!
a2 (3fga g2e2 | f>fg>a b>g (3efg | a2 (3cde f2 (3Bcd | (3efe (3dcB A2A,2 :|

